packages/icons/src/SVG/inbox-solid.svg

<!-- Generated by IcoMoon.io -->
<svg version="1.1" xmlns="http://www.w3.org/2000/svg" width="12" height="12" viewBox="0 0 12 12">
<title>inbox-solid</title>
<path d="M12 3v9h-12v-9h1v4h3c0 1.105 0.895 2 2 2s2-0.895 2-2h3v-4h1z"></path>
<path d="M7 3v-3h-2v3h-2l3 4 3-4h-2z"></path>
</svg>

<svg width="12" height="12" viewBox="0 0 12 12" >
<path d="M12 3V12H0L3.93402e-07 3H1L1 7H4C4 8.10457 4.89543 9 6 9C7.10457 9 8 8.10457 8 7L11 7V3H12Z" />
<path d="M7 3V8.74228e-08L5 0V3H3L6 7L9 3H7Z" />
</svg>
